X:1
T:Hungarian Dance No. 5 in G Minor
T:Hungarian Dance No. 5 in G Minor
T:Intermediate
T:Johannes Brahms
C:Johannes Brahms
%%score { ( 1 3 ) | 2 }
L:1/8
Q:1/4=130
M:2/4
K:Bb
V:1 treble nm="Piano" snm="Pno."
V:3 treble 
V:2 bass 
V:1
"^Allegro"!mf! (D3 G) | (B3 G) | (^F3 G/A/ | G4) | (E3 F/G/ | D4) | (C/B,/B,/A,/ A,>)D | G,4 | %8
 (D3 G/B/ | d3) B | [EA]3 (B/c/ | [DB]4) |!p! .e/!<(!.f/.g/.e/ .d/.e/.f/.d/ | %13
 .c/.d/.e/.c/ .B/.c/.d/.B/ | (c/B/B/A/ A>)d | G2 !arpeggio![GBdg] z!<)! |!f! [Bd]3 [Bg] | %17
 [db]3 [dg] | [ce^f]3 (g/a/ | [Bdg]4) | [ce]3 ([df]/[eg]/ | [Bd]4) | (c/B/B/A/ A>)d | G4 | %24
!f! (D>!<(!G B/d/g/b/!<)! |!ff! d'3) b | [ce^fa]3 (b/c'/ | [Bdgb]4) | %28
!p!!8va(! (e'/!<(!f'/!>!g'/e'/ d'/e'/!>!f'/d'/) | (c'/d'/!>!e'/c'/ b/c'/!>!d'/b/)!8va)! | %30
 (!>!c'/b/!>!b/a/ !>!a>d')!<)! |!f! [Gg]2 !>![gbd'g'] z |: [fd']2 [fd']2 | [ge']3 [fd'] | %34
 z [ec']2 =b/c'/ | d'/c'/=b/d'/ c'2 | [ec']2 [ec']2 | [fd']3 [ec'] | z [db]2 d | d z d z | %40
[Q:1/4=110]"^Poco. rit."!f!"_dim."!>(! [ca]2[Q:1/4=80] [ca]2 | [ec'] [db]2 [ca] | %42
 [ca][Q:1/4=60] [Bg]2 [A^f]/[Bg]/ |[Q:1/4=50] [ca]/[Bg]/[A^f]/[ca]/ [Bdg]!>)![Q:1/4=20]!p! z | %44
"CIn"[Q:1/4=130] .[d^fad']"CTempo" z z3/2!f! [Dd]/ | [=E=e] z [^F^f] z |{/a} g [Bg]2 ^f/g/ | %47
 (5:4:5([ca]/g/^f/g/a/ [Bg]) z :|[K:G][Q:1/4=140]"^Vivace"!f! [dg][Bd] [Bd][Bd] | %49
 [Bd][Ac] [GB][Ac] | [GBd][GBd] [GBd][GBd] | [dg][Bd] [Bd][Bd] | [Bd][Ac] [GB][FA] | %53
 [B,DG][B,DG] [B,DG][B,DG] | [dg][Bd] [Bd][Bd] | [Bd][Ac] [GB][Ac] | [GBd][GBd] [GBd][GBd] | %57
 [dg][Bd] [Bd][Bd] | [Bd][Ac] [GB][FA] | [B,DG][B,DG] [B,DG][Q:1/4=40][B,DG] |: %60
"Crit."[Q:1/4=60]"^Dolce"!p! B-B c-c |[Q:1/4=60] B-B A-[Q:1/4=20]A | %62
[Q:1/4=140]"^Vivace"!f! .[Bgb].[Bgb].[cac'].[cac'] | [dbd'][gbg'] [dbd']2[Q:1/4=20] | %64
"Crit."[Q:1/4=60]"^Dolce"!p! B-B c-c |[Q:1/4=40][Q:1/4=50] d-d d-[Q:1/4=20]d | %66
[Q:1/4=140]"^Vivace"!f! .[dbd'].[cac'].[Bgb].[Afa] | ([GBd][gbd'])[Q:1/4=20][Q:1/4=40] z2 :| %68
[K:Bb]!mf![Q:1/4=130]"^Allegro" (D3 G) | (B3 G) | (^F3 G/A/ | G4) | (E3 F/G/ | D4) | %74
 (C/B,/B,/A,/ A,>)D | G,4 |!f! (D>!<(!G B/d/g/b/!<)! |!ff! d'3) b | [ce^fa]3 (b/c'/ | [Bdgb]4) | %80
!p!!p!!8va(! (e'/!<(!!<(!f'/!>!g'/e'/ d'/e'/!>!f'/d'/) | (c'/d'/!>!e'/c'/ b/c'/!>!d'/b/)!8va)! | %82
 (!>!c'/b/!>!b/a/ !>!a>d')!<)!!<)! |!f!!f! [Gg]2 !>![gbd'g'] z |: [fd']2 [fd']2 | [ge']3 [fd'] | %86
 z [ec']2 =b/c'/ | d'/c'/=b/d'/ c'2 | [ec']2 [ec']2 | [fd']3 [ec'] | z [db]2 d | d z d z | %92
"^poco. rit."[Q:1/4=100]!f!"_dim."!>(! [ca]2[Q:1/4=90] [ca]2 | %93
[Q:1/4=80] [ec'] [db]2[Q:1/4=70] [ca] |[Q:1/4=60] [ca] [Bg]2 [A^f]/[Bg]/ | %95
 [ca]/[Bg]/[A^f]/[ca]/ [Bdg]!>)![Q:1/4=20]!p! z | %96
"CIn"[Q:1/4=130] .[d^fad']"CTempo" z z3/2!f! [Dd]/ | [=E=e] z [^F^f] z |{/a} g [Bg]2 ^f/g/ | %99
 (5:4:5([ca]/g/^f/g/a/ [Bg]) z :|!fff! .[gae'] z .[d^fad'] z | [GBdg]4 |] %102
V:2
 G,,[B,,D,] D,,[B,,D,] | G,,[B,,D,] D,,[B,,D,] | G,,[C,E,] C,,[C,E,] | G,,[B,,D,] D,,[B,,D,] | %4
 G,,[C,E,] C,,[C,E,] | G,,[B,,D,] D,,[B,,D,] | ^F,,[C,D,] D,,[C,D,] | G,,[B,,D,] D,,[B,,D,] | %8
 G,,[B,,D,] D,,[B,,D,] | G,,[B,,D,] D,,[B,,D,] | G,,[C,E,] C,,[C,E,] | G,,[B,,D,] D,,[B,,D,] | %12
 G,.[B,E] F,.[A,D] | E,.[G,C] D,.[G,B,] | D,,[^F,D] z .[D,F,C] | G,2 [G,,D,G,] z | %16
 G,,[B,,D,] D,,[B,,D,] | G,,[B,,D,] D,,[B,,D,] | G,,[C,E,] C,,[C,E,] | G,,[B,,D,] D,,[B,,D,] | %20
 G,,[C,E,] C,,[C,E,] | G,,[B,,D,] D,,[B,,D,] | ^F,,[C,D,] D,,[C,D,] | G,,[B,,D,] D,,[B,,D,] | %24
 G,,[B,,D,] D,,[B,,D,] | G,,[B,,D,] D,,[B,,D,] | G,,[C,E,] C,,[C,E,] | G,,[B,,D,] D,,[B,,D,] | %28
 G,.[B,E] F,.[A,D] | E,.[G,C] D,.[G,B,] | D,,[^F,D] z .[D,F,C] | [G,,G,]2 !>![G,,,G,,]2 |: %32
 =B,,[F,G,=B,] G,,[F,G,B,] | =B,,[G,=B,] G,,[F,G,B,] | C,[E,G,C] G,,[E,G,C] | %35
 C,[E,G,C] B,,[C,E,G,] | A,,[E,F,A,] F,,[E,F,A,] | A,,[F,A,] F,,[E,F,A,] | %38
 B,,[D,F,B,] F,,[D,F,B,] | B,,[D,F,B,] F,,[D,F,B,] | ^F,[A,CD] D,[A,CD] | ^F,[A,D] D,[A,CD] | %42
 E,[G,B,E] B,,[G,B,E] | E,[G,B,E] B,,[G,B,D] | .[^F,,^F,]2 z3/2 [D,,D,]/ | %45
 [=E,,=E,] z [^F,,^F,] z | [G,,,G,,] [D,G,B,]2 z | [C,E,G,]2 [G,,B,,D,G,]2 :| %48
[K:G] [G,,G,]D, [G,,G,]D, | [G,,G,]D, [G,,G,]D, | [G,,G,]D, [G,,G,]D, | [G,,G,]D, [G,,G,]D, | %52
 [G,,G,]D, [G,,G,]D, | [G,,G,]D, [G,,G,]D, | [G,,G,]D, [G,,G,]D, | [G,,G,]D, [G,,G,]D, | %56
 [G,,G,]D, [G,,G,]D, | [G,,G,]D, [G,,G,]D, | [G,,G,]D, [G,,G,]D, | [G,,G,]D, [G,,G,]D, |: %60
 G,,[G,,D,] G,,[G,,D,] | G,,[G,,D,] G,,[G,,D,] | .G,,.G,.E,.C, | ([G,,G,].[G,B,D]) z .[G,B,D] | %64
 G,,[G,,D,] G,,[G,,D,] | G,,[G,,D,] G,,[G,,D,] | .G,,.C,.D,.D, | ([G,,D,G,]2 .[G,B,D]) z :| %68
[K:Bb] G,,[B,,D,] D,,[B,,D,] | G,,[B,,D,] D,,[B,,D,] | G,,[C,E,] C,,[C,E,] | %71
 G,,[B,,D,] D,,[B,,D,] | G,,[C,E,] C,,[C,E,] | G,,[B,,D,] D,,[B,,D,] | ^F,,[C,D,] D,,[C,D,] | %75
 G,,[B,,D,] D,,[B,,D,] | G,,[B,,D,] D,,[B,,D,] | G,,[B,,D,] D,,[B,,D,] | G,,[C,E,] C,,[C,E,] | %79
 G,,[B,,D,] D,,[B,,D,] | G,.[B,E] F,.[A,D] | E,.[G,C] D,.[G,B,] | D,,[^F,D] z .[D,F,C] | %83
 [G,,G,]2 !>![G,,,G,,]2 |: =B,,[F,G,=B,] G,,[F,G,B,] | =B,,[G,=B,] G,,[F,G,B,] | %86
 C,[E,G,C] G,,[E,G,C] | C,[E,G,C] B,,[C,E,G,] | A,,[E,F,A,] F,,[E,F,A,] | A,,[F,A,] F,,[E,F,A,] | %90
 B,,[D,F,B,] F,,[D,F,B,] | B,,[D,F,B,] F,,[D,F,B,] | ^F,[A,CD] D,[A,CD] | ^F,[A,D] D,[A,CD] | %94
 E,[G,B,E] B,,[G,B,E] | E,[G,B,E] B,,[G,B,D] | .[^F,,^F,]2 z3/2 [D,,D,]/ | %97
 [=E,,=E,] z [^F,,^F,] z | [G,,,G,,] [D,G,B,]2 z | [C,E,G,]2 [G,,B,,D,G,]2 :| %100
 .[C,,A,,E,] z .[D,,A,,D,] z | [G,,B,,D,B,]4 |] %102
V:3
 x4 | x4 | x4 | x4 | x4 | x4 | x4 | x4 | x4 | x4 | x4 | x4 | x4 | x4 | x4 | x4 | x4 | x4 | x4 | %19
 x4 | x4 | x4 | x4 | x4 | x4 | x4 | x4 | x4 |!8va(! x4 | x4!8va)! | x4 | x4 |: x4 | x4 | x3 e- | %35
 e3 z | x4 | x4 | x3 a/b/ | c'/b/a/c'/ b2 | x4 | x4 | x4 | x4 | x4 | x4 | x4 | x4 :|[K:G] x4 | x4 | %50
 x4 | x4 | x4 | x4 | x4 | x4 | x4 | x4 | x4 | x4 |: z [DG] z [EG] | z [DG] z [DF] | x4 | x4 | %64
 z [DG] z [EG] | z [Ac] z [GB] | x4 | x4 :|[K:Bb] x4 | x4 | x4 | x4 | x4 | x4 | x4 | x4 | x4 | x4 | %78
 x4 | x4 |!8va(! x4 | x4!8va)! | x4 | x4 |: x4 | x4 | x3 e- | e3 z | x4 | x4 | x3 a/b/ | %91
 c'/b/a/c'/ b2 | x4 | x4 | x4 | x4 | x4 | x4 | x4 | x4 :| x4 | x4 |] %102

